X:24
T:Carnavale di Venezia
C:Munier
N:TablEdited by Kim Davis
L:1/8
Q:1/4=240
M:6/8
K:A
z4ze/4e3/8e3/8 | f/4f3/8f3/8e/4e3/8e3/8d/4d3/8d3/8 c/4c3/8c3/8B/4B3/8B3/8A/4A3/4 | 
G/4G3/8G3/8G/4G3/8G3/8G/4G3/8G3/8 F/4F3/8F3/8F/4F3/4f/4f3/8f3/8 | g/4g3/8g3/8f/4f3/8f3/8e/4e3/8e3/8 d/4d3/8d3/8c/4c3/8c3/8B/4B3/4 | 
A/4A3/8A3/8A/4A3/8A3/8A/4A3/8A3/8 G/4G3/8G3/8G/4G3/4E/4E3/8E3/8 | =F/4F3/8F3/8E/4E3/8E3/8^F/4F3/8F3/8 E/4E3/8E3/8=G/4G3/8G3/8E/4E3/4 | 
G/4G3/8G3/8E/4E3/8E3/8A/4A3/8A3/8 E/4E3/8E3/8^A/4A3/8A3/8E/4E3/4 | B/4B3/8B3/8B/4B3/8B3/8B/4B3/8B3/8 B/4B3/8B7/8^A/B/c/ | 
d/c/d/e/g/fd/f/e/d/c/ | z/d/c/d/F/4F/4F/4F/4 A/4A/4A/4A/4G/4G/4G/4G/4B/4B/4B/4B/4 | 
A/4A/4A/4A/4A/4A/4A7/2e | z2e d2c | dB/4B3/8B3/8B/4B3/8B3/8 BBc | d2e f2e | c/4c3/8c3/8c/4c3/8c3/8c/4c3/8c3/8 c/4c3/8c3/8ce | 
a2e edc | dB/4B3/8B3/8B/4B3/8B3/8 BBc | d2e f2e | A/4A3/8A3/8A/4A3/8A3/8A/4A3/8A3/8 A/4A3/8A3/8A/4A3/4e/4e3/4 | 
e/4e3/8e3/8d/4d3/8d3/8c/4c3/4 c/4c3/8c3/8B/4B3/8B3/8A/4A3/4 | AG/4G3/8G3/8G/4G3/8G3/8 GB,C | 
D2E F2E | C/4C3/8C3/8C/4C3/8C3/8C/4C3/8C3/8 C/4C3/8C3/8C/4C3/4e/4e3/8e3/8 | a/4a3/8a3/8g/4g3/8g3/8f/4f3/8f3/8 e/4e3/8e3/8d/4d3/8d3/8c/4c3/8c3/8 | 
dB/4B3/8B3/8B/4B3/8B3/8 BBc | d2e f2e | A/4A3/8A3/8A/4A3/8A3/8A/4A3/8A3/8 A/4A3/8Az3/8e | 
f/e/d/c/B/A/ d/c/B/A/G/F/ | E/^D/E/F/G/A/ B/A/G/A/B/c/ | d/c/B/c/d/e/ f/e/^d/e/f/e/ | 
c/4c3/8c3/8c/4c3/8c3/8c/4c3/8c3/8 c/4c3/8cz3/8e | a/g/f/e/e/e/ f/e/d/c/B/A/ | 
GE/F/G/A/ BG/A/B/c/ | dB/c/d/e/ f/e/^d/e/f/e/ | a/4a3/8a3/8a/4a3/8a3/8a/4a3/8a3/8 a/4a3/8a3/8a/4a3/4e | 
e/e/d/d/c/c/ c/c/B/B/A/A/ | AG/4G3/8G3/8G/4G3/8G3/8 G/4G3/4G,/A,/B,/C/ | D/E/F/G/A/B/ c/d/e/f/g/a/ | 
b/a/g/a/b/a/ e/4e3/8e3/8e/4e3/4e | a/e/g/e/f/e/ f/e/d/c/B/A/ | G/F/E/F/G/A/ B/A/G/A/B/c/ | 
d/c/B/c/d/e/ f/e/^d/e/f/e/ | aec A2E/4E/4E/4E/4 | =F/4F/4F/4F/4F/4F/4F/4F/4E/4E/4E/4E/4 D/4D/4D/4D/4D/4D/4D/4D/4=C/4C/4C/ | 
E/4E/4E/4E/4E/4E/4E/4E/4D/4D/4D/4D/4 B,/4B,/4B,/4B,/4B,/4B,/4B,/4B,/4=C/4C/4C/ | 
D/4D/4D/4D/4D/4D/4D/4D/4^D/4D/4D/4D/4 E/4E/4E/4E/4E/4E/4E/4E/4B,/4B,/4B,/ | D/4D/4D/4D/4D/4D/4D/4D/4D/4D/4D/4D/4 =C/4C/4C/4C/4C/4C/4C/E/4E/4E/4E/4 | 
A/4A/4A/4A/4A/4A/4A/4A/4G/4G/4G/4G/4 =G/4G/4G/4G/4G/4G/4G/4G/4F/4F/4F/ | =F/4F/4F/4F/4F/4F/4F/4F/4E/4E/4E/4E/4 D/4D/4D/4D/4D/4D/4D/4D/4E/4E/4E/ | 
=F/4F/4F/4F/4F/4F/4F/4F/4A/4A/4A/4A/4 B/4B/4B/4B/4B/4B/4B/4d/4=c/4c/4c/ | B/4B/4B/4B/4B/4B/4B/4B/4B/4B/4B/4B/4 B/4B/4B/4B/4Be/4e/4e/4e/4 | 
a/4a/4a/4a/4a/4a/4a/4a/4e/4e/4e/ e/4e/4e/4e/4d/4d/4d/4d/4=c/4c/4c/ | e/4e/4e/4e/4e/4e/4e/4e/4d/4d/4d/4d/4 B/4B/4B/4B/4B/4B/4B/4B/4=c/4c/4c/ | 
d/4d/4d/4d/4d/4d/4d/4d/4^d/4d/4d/4d/4 e/4e/4e/4e/4e/4e/4e/4e/4B/4B/4B/ | d/4d/4d/4d/4d/4d/4d/4d/4d/4d/4d/4d/4 =c/4c/4c/4c/4c/4c/4c/e/4e/4e/4e/4 | 
=c'/4c'/4c'/4c'/4b/4b/4b/4b/4a/4a/4a/4a/4 =g/4g/4g/4g/4=f/4f/4f/4f/4e/4e/4e/ | 
=g/4g/4g/4g/4=f/4f/4f/4f/4e/4e/4e/4e/4 d/4d/4d/4d/4=c/4c/4c/4c/4B/4B/4B/ | A/4A/4A/4A/4E/4E/4E/4E/4=c/4c/4c/4c/4 B/4B/4B/4B/4E/4E/4E/4E/4B/4B/4B/4B/4 | 
A/4A/4A/4A/4A/4A/4A/4A/4A/4A/4A/4A/4 A2e | f/D/F/E/e/E/ d/E/F/E/c/E/ | d/G,/B,/E/G/B/ d/B,/E/G/B/c/ | 
d/E/F/E/e/E/ f/E/F/D/e/E/ | c/A,/C/E/A/c/ e/C/E/A/c/e/ | a/E/F/E/e/E/ e/E/d/E/c/E/ | 
d/G,/A,/B,/C/D/ E/F/G/A/B/c/ | d/E/F/E/e/E/ f/E/F/E/e/E/ | a/g/f/e/c/e3/2A,C | 
E/e/F/e/G/e/ A/e/B/e/c/e/ | d/e/=f/e/^f/e/ =g/e/^g/e/a/e/ | b/a/g/f/e/d/ c/B/A/G/F/E/ | 
A/e/e/e/e/e/ c/e/e/e/e/e/ | a/e/g/e/f/e/ e/e/d/e/c/e/ | d/e/c/e/d/e/ B/e/B/e/c/e/ | 
d/e/e/e/e/e/ f/e/e/e/e/e/ | AA,/C/E/A/ cBA | GE/G/B/d/ fed | cA/c/e/a/ BF/B/d/f/ | 
eE/A/c/f/ eE/G/B/e/ | AA,/C/E/A/ cBA | GE/G/B/d/ fed | cA/c/e/a/ BF/B/d/f/ | eE/A/c/f/ eE/G/B/e/ | 
Ae/e/e/e/ =f/e/^f/e/g/e/ | aE/E/E/E/ =F/F/^F/F/=G/G/ | G/G/A/A/^A/A/ B/B/=c/c/^c/c/ | 
d/d/d/d/d/d/ ^d/d/d/d/d/d/ | e/e/e/e/e/e/ =f/f/f/f/f/f/ | z/f/f/f/e/e/ d/d/d/d/c | 
e/e/e/e/d/d/ B/B/B/B/c | d/d/d/d/e/e/ f/f/f/f/e | c/c/c/c/c/c/ c/c/ce | agf edc | 
dcB AGF | EDC B,A,G, | A,=FF FFF | =FEA AGB | Aee eee | =fee ^fee | a3 [a3c3E3] | 
[a3c3E3] [a3c3E3] | [c6E6] | [A4E4C4]zz/4A,3/4 | A,/4A,3/8A,3/8A,/4A,3/8A,3/8A,/4A,3/8A,3/8 A,/4A,3/8A,3/8A,/4A,3/8A,3/8A,/4A,3/8A,3/8 | 
A,/4A,3/8A,3/8A,/4A,3/8A,4z3/8 | z6 | 
 

